X:6
T:Qu'il est formidable d'aimer
M:4/4
L:1/4
K:Eb
"Mib"EE "Sib"FA|"Mib"GG/F/ E2|"Lab"A/A/ B/A/ "Mib"G2|[M:2/4]"Sib"F2|[M:4/4]"Mib"EE "Sib"FA|"Mib"GG/F/ E2|
"Lab"A/A/ B/A/ "Mib"G/G/ A/G/|"Sib"F/F/E/D/ "Mib"E2||"Mib"G G/GF/ E|"Solm"B3 B,|
"Lab"CC EA|"Mib"G4|"Lab"AA/AB/A|"Mib"G3 G|"Fa"FC FE|"Sib"D4|"Mib"G G/GF/ E|"Solm"B3 B|
"Lab"cc BA|"Solm"G4|"Lab"AA/AB/ A|"Mib"G3 B|"Fa"=AA AA|"Sib"B4||
